src/assets/icons/hashtag.svg

<svg width="14" height="14" viewBox="0 0 14 14" fill="none" xmlns="http://www.w3.org/2000/svg">
<g id="hashtag">
<g clip-path="url(#clip0_156_4683)">
<path id="Vector" fill-rule="evenodd" clip-rule="evenodd" d="M6.08649 1.38702C6.15861 1.09851 5.9832 0.806165 5.6947 0.734039C5.40619 0.661913 5.11384 0.837322 5.04172 1.12583L4.42574 3.58976H1.97436C1.67697 3.58976 1.4359 3.83083 1.4359 4.12822C1.4359 4.4256 1.67697 4.66668 1.97436 4.66668H4.15651L2.98984 9.33335H0.538462C0.241077 9.33335 0 9.57442 0 9.87181C0 10.1692 0.241077 10.4103 0.538462 10.4103H2.72061L2.16992 12.613C2.0978 12.9015 2.27321 13.1939 2.56171 13.266C2.85022 13.3381 3.14257 13.1627 3.21469 12.8742L3.83067 10.4103H8.4642L7.91351 12.613C7.84139 12.9015 8.0168 13.1939 8.3053 13.266C8.59381 13.3381 8.88616 13.1627 8.95828 12.8742L9.57426 10.4103H12.0256C12.323 10.4103 12.5641 10.1692 12.5641 9.87181C12.5641 9.57442 12.323 9.33335 12.0256 9.33335H9.8435L11.0102 4.66668H13.4615C13.7589 4.66668 14 4.4256 14 4.12822C14 3.83083 13.7589 3.58976 13.4615 3.58976H11.2794L11.8301 1.38702C11.9022 1.09851 11.7268 0.806165 11.4383 0.734039C11.1498 0.661913 10.8574 0.837322 10.7853 1.12583L10.1693 3.58976H5.5358L6.08649 1.38702ZM9.90009 4.66668H5.26657L4.09991 9.33335H8.73343L9.90009 4.66668Z" fill="black"/>
</g>
</g>
<defs>
<clipPath id="clip0_156_4683">
<rect width="14" height="14" fill="white"/>
</clipPath>
</defs>
</svg>

<svg xmlns="http://www.w3.org/2000/svg" fill="none" viewBox="0 0 14 14"><g clip-path="url(#a)"><path fill="#000" fill-rule="evenodd" d="M6.086 1.387a.538.538 0 0 0-1.044-.261L4.426 3.59H1.974a.538.538 0 1 0 0 1.077h2.183L2.99 9.333H.538a.538.538 0 1 0 0 1.077h2.183l-.551 2.203a.538.538 0 0 0 1.045.261l.616-2.464h4.633l-.55 2.203a.538.538 0 0 0 1.044.261l.616-2.464h2.452a.539.539 0 0 0 0-1.077H9.844l1.166-4.666h2.451a.538.538 0 1 0 0-1.077H11.28l.551-2.203a.538.538 0 0 0-1.045-.261L10.17 3.59H5.536zM9.9 4.667H5.267L4.1 9.333h4.633z" clip-rule="evenodd"/></g><defs><clipPath id="a"><path fill="#fff" d="M0 0h14v14H0z"/></clipPath></defs></svg>
